Gruvbox-Plus-Dark/actions/16/view-column.svg

<svg width="16" height="16" version="1.1" viewBox="0 0 16 16" xmlns="http://www.w3.org/2000/svg">
  <defs>
    <style type="text/css">.ColorScheme-Text { color:#ebdbb2; } .ColorScheme-Highlight { color:#458588; }</style>
  </defs>
  <path class="ColorScheme-Text" d="m1 3v10h2v-10zm4 0v10h2v-10zm4 0v10h2v-10zm4 0v10h2v-10z" fill="currentColor"/>
</svg>

<svg xmlns="http://www.w3.org/2000/svg" width="16" height="16" viewBox="0 0 16 16">
 <defs>
  <style id="current-color-scheme" type="text/css">
   .ColorScheme-Text { color:#ebdbb2; } .ColorScheme-Highlight { color:#458588; }
  </style>
 </defs>
 <path style="fill:currentColor" class="ColorScheme-Text" d="M 1 3 L 1 13 L 3 13 L 3 3 L 1 3 z M 5 3 L 5 13 L 7 13 L 7 3 L 5 3 z M 9 3 L 9 13 L 11 13 L 11 3 L 9 3 z M 13 3 L 13 13 L 15 13 L 15 3 L 13 3 z"/>
</svg>
